X: 1
T: Highland Laddie
R: March
M: 2/4
L: 1/8
K: Amix
|: A/B/ | d>e fa | g/>f/e/>d/ f2 | fe ed/e/ | fe ed/B/ | 
d>e fa | g/>f/e/>d/ fe/f/ | dB BA/B/ | dB B :| 
|: g | ag/f/ gf/e/ | f/e/d/e/ f2 | fe ed/e/ | fe ef/g/ | 
ag/f/ gf/e/ | f/e/d/e/ fe/f/ | dB BA/B/ | dB B :| 